X:1
T:Title
%%score { ( 1 3 ) | ( 2 4 ) }
L:1/8
M:4/2
K:A
V:1 treble nm="Grand Piano"
V:3 treble 
V:2 bass 
V:4 bass 
V:1
 z8 z4[Q:1/4=200] A4 | G4 E4 F4 G4 | z4 z2 F2 A4 B4 | c4 [A,EA]4 [A,FA]4 [DFB]4 |[M:6/4] [B,EG]12 | %5
[M:2/4] [B,EG]4 |[M:8/4] [A,EA]4 [EB]4 [Ec]4 c4 | d8 c4 [FB]4 | c4 A4 [GB]6 A2 |[M:6/4] A12 |] %10
V:2
 z8 z4 [A,CE]4 | [E,B,E]4 [E,G,]4 [E,A,E]4 [E,B,E]4 | [CE]8 z8 | [A,E]4 C,4 D,4 B,,4 | %4
[M:6/4] E,12 |[M:2/4] D,4 |[M:8/4] C,4 [B,,G,]4 [A,,A,]4 [=G,A,E]4 | [F,A,D]8 [E,A,E]4 [^D,A,]4 | %8
 [E,A,E]4 [E,C]4 [E,D]6 [A,C]2 |[M:6/4] [A,C]12 |] %10
V:3
 x16 | x16 | A8 z8 | x16 |[M:6/4] x12 |[M:2/4] x4 |[M:8/4] x16 | x16 | x16 |[M:6/4] x12 |] %10
V:4
 x16 | x16 | A,6- [A,D]2 [A,CE]4 [E,G,E]4 | x16 |[M:6/4] x12 |[M:2/4] x4 |[M:8/4] x16 | x16 | x16 | %9
[M:6/4] x12 |] %10

